X:1
T:Omni Die, 87.87
T:Omni Die, 87.87
T:Corner’s Gesangbuch, 1631; arr by Rockstro 1906
T:Public Domain Courtesy of the Cyber Hymnal™
C:Corner’s Gesangbuch, 1631; arr by Rockstro 1906
Z:Public Domain
Z:Courtesy of the Cyber Hymnal™
%%score ( 1 2 ) 3
L:1/8
M:3/2
K:F
V:1 treble 
V:2 treble 
V:3 bass 
V:1
 [CF]2 [DF]2 | [EG]4 F4 [FA]2 [Fc]2 | B4 [FA]4 [CF]2 [EG]2 | [FA]2 [Gc]2 [Fc]4 [F=B]4 | %4
 [Ec]8 [Fc]2 [Gc]2 | [Fd]4 [Fc]4 [FB]2 [FA]2 | G4 [^CA]4 [DF]2 [EG]2 | [FA]2 [FB]2 [FG]4 z2 F2 | %8
 F8 |] %9
V:2
 x4 | x4 F4 x4 | F2 E2 x8 | x12 | x12 | x12 | E2 D2 x8 | x8 E4 | F8 |] %9
V:3
 [F,A,]2 [D,A,]2 | [C,C]4 [F,A,]4 [F,C]2 [F,A,]2 | [G,B,]4 [F,C]4 [F,A,]2 [C,C]2 | %3
 [F,C]2 [E,C]2 [F,A,]2 [E,G,]2 [D,F,]4 | [C,G,]8 [F,A,]2 [E,G,]2 | [D,A,]4 [F,A,]4 [B,,D]2 [F,C]2 | %6
 [C,C]2 [B,,D]2 [A,,E]4 [D,A,]2 [C,C]2 | [F,C]2 [B,,D]2 [C,C]4 [C,C]4 | [F,,A,]8 |] %9

